X:335
T: Up and About In the Morning
S: B.Breathnach: "Ceol Rince na hEireann" II/74 (gan ainm)
Z: B.Black
L: 1/8
M: 12/8
R: slide
Q: 375
K: D
(3EFG|AAA DFD A2D A2d|cBA EFG EFD EFG|
AAA DFD A2D A2d|cBA EGE F2D D :|
FA|d2e fff e2z dcA|AAA EFG EFD EFG|
d2e fff e2e dcA|AAA EGE F2D D :|

